Numix-GalliumOS/64/mimetypes/application-x-scribus.svg

<?xml version="1.0" encoding="UTF-8" standalone="no"?>
<svg
   xmlns:dc="http://purl.org/dc/elements/1.1/"
   xmlns:cc="http://creativecommons.org/ns#"
   xmlns:rdf="http://www.w3.org/1999/02/22-rdf-syntax-ns#"
   xmlns:svg="http://www.w3.org/2000/svg"
   xmlns="http://www.w3.org/2000/svg"
   xmlns:sodipodi="http://sodipodi.sourceforge.net/DTD/sodipodi-0.dtd"
   xmlns:inkscape="http://www.inkscape.org/namespaces/inkscape"
   width="64px"
   height="64px"
   viewBox="0 0 64 64"
   version="1.1"
   id="svg2"
   inkscape:version="0.91 r13725"
   sodipodi:docname="application-x-scribus.svg">
  <metadata
     id="metadata21">
    <rdf:RDF>
      <cc:Work
         rdf:about="">
        <dc:format>image/svg+xml</dc:format>
        <dc:type
           rdf:resource="http://purl.org/dc/dcmitype/StillImage" />
        <dc:title></dc:title>
      </cc:Work>
    </rdf:RDF>
  </metadata>
  <defs
     id="defs19" />
  <sodipodi:namedview
     pagecolor="#ffffff"
     bordercolor="#666666"
     borderopacity="1"
     objecttolerance="10"
     gridtolerance="10"
     guidetolerance="10"
     inkscape:pageopacity="0"
     inkscape:pageshadow="2"
     inkscape:window-width="1366"
     inkscape:window-height="713"
     id="namedview17"
     showgrid="false"
     inkscape:zoom="1"
     inkscape:cx="32"
     inkscape:cy="24.329689"
     inkscape:window-x="0"
     inkscape:window-y="28"
     inkscape:window-maximized="1"
     inkscape:current-layer="svg2">
    <inkscape:grid
       type="xygrid"
       id="grid3355" />
  </sodipodi:namedview>
  <g
     id="surface1">
    <path
       style=" stroke:none;fill-rule:nonzero;fill:rgb(92.156863%,10.588235%,13.72549%);fill-opacity:1;"
       d="M 10.671875 0 C 9.296875 0 8 1.355469 8 2.789062 L 8 61.210938 C 8 62.566406 9.375 64 10.671875 64 L 53.328125 64 C 54.625 64 56 62.566406 56 61.210938 L 56 18 L 38 0 Z M 10.671875 0 "
       id="path5" />
    <path
       style=" stroke:none;fill-rule:nonzero;fill:rgb(0%,0%,0%);fill-opacity:0.196078;"
       d="M 42 18 L 56 32 L 56 18 Z M 42 18 "
       id="path7" />
    <path
       style=" stroke:none;fill-rule:nonzero;fill:rgb(100%,100%,100%);fill-opacity:0.392157;"
       d="M 38 0 L 55.984375 18 L 40.757812 18 C 39.410156 18 38 16.574219 38 15.226562 Z M 38 0 "
       id="path9" />
  </g>
  <path
     style="color:#000000;font-style:normal;font-variant:normal;font-weight:normal;font-stretch:normal;font-size:medium;line-height:normal;font-family:sans-serif;text-indent:0;text-align:start;text-decoration:none;text-decoration-line:none;text-decoration-style:solid;text-decoration-color:#000000;letter-spacing:normal;word-spacing:normal;text-transform:none;direction:ltr;block-progression:tb;writing-mode:lr-tb;baseline-shift:baseline;text-anchor:start;white-space:normal;clip-rule:nonzero;display:inline;overflow:visible;visibility:visible;opacity:1;isolation:auto;mix-blend-mode:normal;color-interpolation:sRGB;color-interpolation-filters:linearRGB;solid-color:#000000;solid-opacity:1;fill:#f3ffff;fill-opacity:1;fill-rule:evenodd;stroke:none;stroke-width:0.56400001;stroke-linecap:butt;stroke-linejoin:miter;stroke-miterlimit:4;stroke-dasharray:none;stroke-dashoffset:0;stroke-opacity:1;color-rendering:auto;image-rendering:auto;shape-rendering:auto;text-rendering:auto;enable-background:accumulate"
     d="m 38.330564,22.0696 c -0.854112,-0.09644 -1.539984,-0.09696 -2.169116,0.0256 -0.629136,0.12252 -1.211776,0.422812 -1.558096,0.8003 -0.34632,0.37748 -0.454848,0.74834 -0.509184,0.928004 -1.2198,2.395676 -2.66212,4.775308 -3.981792,6.811044 -1.628748,2.413508 -3.53044,5.224952 -4.52154,7.492148 -0.603448,1.384932 -1.25354,3.05376 -1.894156,4.793272 C 22.36602,46.564616 21.166336,50.206856 20,53.86872 21.898876,54 21.898876,53.9894 23.364028,54 c 1.078628,-1.980704 2.868104,-3.864204 4.365384,-5.239552 2.589912,-2.36446 6.326904,-4.781376 9.895884,-5.321136 l 1.201676,-0.1788 c 0.06652,-3.733896 0.40826,-7.77586 2.253192,-11.050916 0.756528,-1.361272 1.812432,-2.441688 2.79032,-3.677964 0.25152,-0.20292 0.05432,-0.442788 0.08148,-0.664076 -0.730356,-3.625108 -3.204556,-5.423884 -5.55008,-5.789388 -0.0256,0.0044 -0.04964,-0.006 -0.07132,-0.0088 z"
     id="path53"
     inkscape:connector-curvature="0"
     sodipodi:nodetypes="cssccccccccccccccc" />
</svg>

<svg xmlns="http://www.w3.org/2000/svg" viewBox="0 0 64 64">
 <g>
  <path d="m 10.672 0 c -1.375 0 -2.672 1.355 -2.672 2.789 l 0 58.42 c 0 1.355 1.375 2.789 2.672 2.789 l 42.656 0 c 1.297 0 2.672 -1.434 2.672 -2.789 l 0 -43.21 l -18 -18 m -27.328 0" style="fill:#eb1a22;fill-opacity:1;stroke:none;fill-rule:nonzero"/>
  <path d="m 42 18 l 14 14 l 0 -14 m -14 0" style="fill:#000;fill-opacity:0.196;stroke:none;fill-rule:nonzero"/>
  <path d="m 38 0 l 17.984 18 l -15.227 0 c -1.348 0 -2.758 -1.426 -2.758 -2.773 m 0 -15.227" style="fill:#fff;fill-opacity:0.392;stroke:none;fill-rule:nonzero"/>
 </g>
 <path d="m 38.33 22.07 c -0.854 -0.096 -1.54 -0.097 -2.169 0.026 -0.629 0.123 -1.212 0.423 -1.558 0.8 -0.346 0.377 -0.455 0.748 -0.509 0.928 -1.22 2.396 -2.662 4.775 -3.982 6.811 -1.629 2.414 -3.53 5.225 -4.522 7.492 -0.603 1.385 -1.254 3.054 -1.894 4.793 c -1.331 3.645 -2.53 7.287 -3.697 10.949 1.899 0.131 1.899 0.121 3.364 0.131 c 1.079 -1.981 2.868 -3.864 4.365 -5.24 2.59 -2.364 6.327 -4.781 9.896 -5.321 l 1.202 -0.179 c 0.067 -3.734 0.408 -7.776 2.253 -11.05 0.757 -1.361 1.812 -2.442 2.79 -3.678 0.252 -0.203 0.054 -0.443 0.081 -0.664 -0.73 -3.625 -3.205 -5.424 -5.55 -5.789 -0.026 0.004 -0.05 -0.006 -0.071 -0.009 z" mix-blend-mode="normal" isolation="auto" white-space="normal" solid-opacity="1" solid-color="#000000" style="visibility:visible;shape-rendering:auto;color-interpolation-filters:linearRGB;fill:#f3ffff;opacity:1;image-rendering:auto;fill-opacity:1;stroke:none;display:inline;color:#000;fill-rule:evenodd;color-rendering:auto;color-interpolation:sRGB"/>
</svg>
